rospo-icon-theme-classic-common/48x48/places/folder-green-torrent.svg

<svg height="48" width="48" xmlns="http://www.w3.org/2000/svg"><rect height="26" opacity=".2" rx="2" width="40" x="4" y="17"/><path d="m4 34c0 1.108.892 2 2 2h36c1.108 0 2-.892 2-2v-22c0-1.108-.892-2-2-2h-20v-2c0-1.108-.892-2-2-2h-14c-1.108 0-2 .892-2 2" fill="#60924b"/><rect height="26" opacity=".2" rx="2" width="40" x="4" y="15"/><rect fill="#e4e4e4" height="16" rx="2" width="36" x="6" y="13"/><rect fill="#87b158" height="26" rx="2" width="40" x="4" y="16"/><path d="m6 6c-1.108 0-2 .892-2 2v1c0-1.108.892-2 2-2h14c1.108 0 2 .892 2 2v-1c0-1.108-.892-2-2-2zm16 4v1h20c1.108 0 2 .892 2 2v-1c0-1.108-.892-2-2-2z" fill="#fff" opacity=".1"/><path d="m26 19c-5.522847 0-10 4.477153-10 10s4.477153 10 10 10h18v-2h-18c-4.418278 0-8-3.581722-8-8s3.581722-8 8-8zm0 3c-3.865993 0-7 3.134007-7 7s3.134007 7 7 7h18v-2h-18c-2.761424 0-5-2.238576-5-5s2.238576-5 5-5c .688467.000788 1.369353.143747 2 .419922v-2.121094c-.648689-.195887-1.322384-.296547-2-.298828zm0 3c-2.209139 0-4 1.790861-4 4s1.790861 4 4 4h18v-2h-18c-1.104569 0-2-.895431-2-2s .895431-2 2-2c .713268.0013 1.371883.38229 1.728516 1h2.138672c-.455457-1.763986-2.045353-2.99736-3.867188-3z" fill="#2f3e1f"/></svg>

<svg xmlns="http://www.w3.org/2000/svg" width="48" height="48" version="1">
 <rect style="opacity:0.2" width="40" height="26" x="4" y="17" rx="2" ry="2"/>
 <path style="fill:#60924b" d="m 4,34 c 0,1.108 0.892,2 2,2 l 36,0 c 1.108,0 2,-0.892 2,-2 l 0,-22 c 0,-1.108 -0.892,-2 -2,-2 L 22,10 22,8 C 22,6.892 21.108,6 20,6 L 6,6 C 4.892,6 4,6.892 4,8"/>
 <rect style="opacity:0.2" width="40" height="26" x="4" y="15" rx="2" ry="2"/>
 <rect style="fill:#dcdcdc" width="36" height="16" x="6" y="13" rx="2" ry="2"/>
 <rect style="fill:#87b158" width="40" height="26" x="4" y="16" rx="2" ry="2"/>
 <path style="opacity:0.1;fill:#ffffff" d="M 6,6 C 4.892,6 4,6.892 4,8 L 4,9 C 4,7.892 4.892,7 6,7 l 14,0 c 1.108,0 2,0.892 2,2 L 22,8 C 22,6.892 21.108,6 20,6 Z m 16,4 0,1 20,0 c 1.108,0 2,0.892 2,2 l 0,-1 c 0,-1.108 -0.892,-2 -2,-2 z"/>
 <path style="fill:#2f3e1f" d="M 26 19 C 20.477153 19 16 23.477153 16 29 C 16 34.522847 20.477153 39 26 39 L 44 39 L 44 37 L 26 37 C 21.581722 37 18 33.418278 18 29 C 18 24.581722 21.581722 21 26 21 L 26 19 z M 26 22 C 22.134007 22 19 25.134007 19 29 C 19 32.865993 22.134007 36 26 36 L 44 36 L 44 34 L 26 34 C 23.238576 34 21 31.761424 21 29 C 21 26.238576 23.238576 24 26 24 C 26.688467 24.000788 27.369353 24.143747 28 24.419922 L 28 22.298828 C 27.351311 22.102941 26.677616 22.002281 26 22 z M 26 25 C 23.790861 25 22 26.790861 22 29 C 22 31.209139 23.790861 33 26 33 L 44 33 L 44 31 L 26 31 C 24.895431 31 24 30.104569 24 29 C 24 27.895431 24.895431 27 26 27 C 26.713268 27.0013 27.371883 27.38229 27.728516 28 L 29.867188 28 C 29.411731 26.236014 27.821835 25.00264 26 25 z"/>
</svg>
